web-components-icons/e500-image/SVG/make-horizontal-spacing-equal.svg

<?xml version="1.0" encoding="utf-8"?>
<!-- Generator: Adobe Illustrator 24.2.0, SVG Export Plug-In . SVG Version: 6.00 Build 0)  -->
<svg version="1.1" id="Layer_1" xmlns="http://www.w3.org/2000/svg" xmlns:xlink="http://www.w3.org/1999/xlink" x="0px" y="0px"
	 width="512px" height="512px" viewBox="0 0 512 512" xml:space="preserve">
<path d="M480,160v160h-96v-64h-96v160h-96V256H96v96H32V128h64v96h96V64h96v160h96v-64H480z"/>
</svg>

<svg xmlns="http://www.w3.org/2000/svg" viewBox="0 0 512 512"><defs><style>.cls-1{fill-rule:evenodd;}</style></defs><title>make-horizontal-spacing-equal</title><g id="make_horizontal_spacing_equal" data-name="make horizontal spacing equal"><path class="cls-1" d="M480,160V320H384V256H288V416H192V256H96v96H32V128H96v96h96V64h96V224h96V160Z"/></g></svg>
